dist/img/svg/logo.svg

<svg width="122" height="16" viewBox="0 0 122 16" fill="none" xmlns="http://www.w3.org/2000/svg">
<path d="M6.14 11.48H4.86V15H0.14V0.999999H6.88C8.17333 0.999999 9.3 1.21333 10.26 1.64C11.22 2.06667 11.96 2.68 12.48 3.48C13 4.28 13.26 5.21333 13.26 6.28C13.26 7.28 13.0333 8.15333 12.58 8.9C12.1267 9.64667 11.4733 10.24 10.62 10.68L13.56 15H8.52L6.14 11.48ZM8.5 6.28C8.5 5.76 8.34 5.36 8.02 5.08C7.7 4.78667 7.22 4.64 6.58 4.64H4.86V7.92H6.58C7.22 7.92 7.7 7.78 8.02 7.5C8.34 7.20667 8.5 6.8 8.5 6.28ZM26.6823 11.44V15H15.0423V0.999999H26.4223V4.56H19.6823V6.2H25.6023V9.6H19.6823V11.44H26.6823ZM37.7594 7.62H41.8594V13.54C41.0327 14.1133 40.0727 14.5533 38.9794 14.86C37.886 15.1667 36.8127 15.32 35.7594 15.32C34.266 15.32 32.926 15.0133 31.7394 14.4C30.5527 13.7733 29.6194 12.9067 28.9394 11.8C28.2727 10.68 27.9394 9.41333 27.9394 8C27.9394 6.58667 28.2727 5.32667 28.9394 4.22C29.6194 3.1 30.5594 2.23333 31.7594 1.62C32.9727 0.993333 34.3394 0.68 35.8594 0.68C37.2327 0.68 38.4594 0.913333 39.5394 1.38C40.6327 1.83333 41.5394 2.5 42.2594 3.38L39.2394 6.04C38.3594 5.01333 37.3127 4.5 36.0994 4.5C35.0594 4.5 34.2327 4.81333 33.6194 5.44C33.006 6.06667 32.6994 6.92 32.6994 8C32.6994 9.05333 32.9994 9.9 33.5994 10.54C34.2127 11.18 35.026 11.5 36.0394 11.5C36.6394 11.5 37.2127 11.3867 37.7594 11.16V7.62ZM45.9658 15.2C45.2058 15.2 44.5724 14.96 44.0658 14.48C43.5724 13.9867 43.3258 13.36 43.3258 12.6C43.3258 11.84 43.5724 11.2267 44.0658 10.76C44.5724 10.28 45.2058 10.04 45.9658 10.04C46.7258 10.04 47.3524 10.28 47.8458 10.76C48.3524 11.2267 48.6058 11.84 48.6058 12.6C48.6058 13.36 48.3524 13.9867 47.8458 14.48C47.3524 14.96 46.7258 15.2 45.9658 15.2ZM62.64 15L62.6 8.62L59.56 13.74H57.48L54.44 8.84V15H50.14V0.999999H54.02L58.58 8.46L63.02 0.999999H66.9L66.94 15H62.64ZM80.862 11.44V15H69.222V0.999999H80.602V4.56H73.862V6.2H79.782V9.6H73.862V11.44H80.862ZM82.6791 0.999999H89.5791C91.1391 0.999999 92.5124 1.28667 93.6991 1.86C94.8991 2.42 95.8257 3.22667 96.4791 4.28C97.1457 5.33333 97.4791 6.57333 97.4791 8C97.4791 9.42667 97.1457 10.6667 96.4791 11.72C95.8257 12.7733 94.8991 13.5867 93.6991 14.16C92.5124 14.72 91.1391 15 89.5791 15H82.6791V0.999999ZM89.3791 11.32C90.3924 11.32 91.1991 11.0333 91.7991 10.46C92.4124 9.87333 92.7191 9.05333 92.7191 8C92.7191 6.94667 92.4124 6.13333 91.7991 5.56C91.1991 4.97333 90.3924 4.68 89.3791 4.68H87.3991V11.32H89.3791ZM99.2025 0.999999H103.923V15H99.2025V0.999999ZM115.735 12.56H110.415L109.475 15H104.675L110.795 0.999999H115.435L121.555 15H116.675L115.735 12.56ZM114.435 9.16L113.075 5.64L111.715 9.16H114.435Z" fill="#272727"/>
</svg>

<svg width="122" height="16" viewBox="0 0 122 16" fill="none" xmlns="http://www.w3.org/2000/svg"><path d="M6.14 11.48H4.86V15H.14V1h6.74c1.293 0 2.42.213 3.38.64.96.427 1.7 1.04 2.22 1.84.52.8.78 1.733.78 2.8 0 1-.227 1.873-.68 2.62-.453.747-1.107 1.34-1.96 1.78L13.56 15H8.52l-2.38-3.52zm2.36-5.2c0-.52-.16-.92-.48-1.2-.32-.293-.8-.44-1.44-.44H4.86v3.28h1.72c.64 0 1.12-.14 1.44-.42.32-.293.48-.7.48-1.22zm18.182 5.16V15h-11.64V1h11.38v3.56h-6.74V6.2h5.92v3.4h-5.92v1.84h7zM37.76 7.62h4.1v5.92c-.826.573-1.786 1.013-2.88 1.32a11.87 11.87 0 01-3.22.46c-1.493 0-2.833-.307-4.02-.92-1.186-.627-2.12-1.493-2.8-2.6-.666-1.12-1-2.387-1-3.8 0-1.413.334-2.673 1-3.78a6.898 6.898 0 012.82-2.6c1.214-.627 2.58-.94 4.1-.94 1.374 0 2.6.233 3.68.7 1.094.453 2 1.12 2.72 2l-3.02 2.66c-.88-1.027-1.926-1.54-3.14-1.54-1.04 0-1.866.313-2.48.94-.613.627-.92 1.48-.92 2.56 0 1.053.3 1.9.9 2.54.614.64 1.427.96 2.44.96.6 0 1.174-.113 1.72-.34V7.62zm8.207 7.58c-.76 0-1.394-.24-1.9-.72-.494-.493-.74-1.12-.74-1.88 0-.76.246-1.373.74-1.84.506-.48 1.14-.72 1.9-.72s1.386.24 1.88.72c.506.467.76 1.08.76 1.84s-.254 1.387-.76 1.88c-.494.48-1.12.72-1.88.72zM62.64 15l-.04-6.38-3.04 5.12h-2.08l-3.04-4.9V15h-4.3V1h3.88l4.56 7.46L63.02 1h3.88l.04 14h-4.3zm18.222-3.56V15h-11.64V1h11.38v3.56h-6.74V6.2h5.92v3.4h-5.92v1.84h7zM82.679 1h6.9c1.56 0 2.933.287 4.12.86 1.2.56 2.127 1.367 2.78 2.42.667 1.053 1 2.293 1 3.72s-.333 2.667-1 3.72c-.653 1.053-1.58 1.867-2.78 2.44-1.187.56-2.56.84-4.12.84h-6.9V1zm6.7 10.32c1.013 0 1.82-.287 2.42-.86.613-.587.92-1.407.92-2.46s-.307-1.867-.92-2.44c-.6-.587-1.407-.88-2.42-.88H87.4v6.64h1.98zM99.202 1h4.721v14h-4.72V1zm16.533 11.56h-5.32l-.94 2.44h-4.8l6.12-14h4.64l6.12 14h-4.88l-.94-2.44zm-1.3-3.4l-1.36-3.52-1.36 3.52h2.72z" fill="#272727"/></svg>
